examples/warm-demo.cube
# 云享传靓仔 · 零件示例（不是产品风格）
# 微信：cylbaw · https://www.ybpbyxc.com
TITLE "Warm Demo (not a product LUT)"
LUT_3D_SIZE 5
DOMAIN_MIN 0 0 0
DOMAIN_MAX 1 1 1

0.020000 0.000000 0.000000
0.290000 0.000000 0.000000
0.560000 0.000000 0.000000
0.830000 0.000000 0.000000
1.000000 0.000000 0.000000
0.020000 0.250000 0.000000
0.290000 0.250000 0.000000
0.560000 0.250000 0.000000
0.830000 0.250000 0.000000
1.000000 0.250000 0.000000
0.020000 0.500000 0.000000
0.290000 0.500000 0.000000
0.560000 0.500000 0.000000
0.830000 0.500000 0.000000
1.000000 0.500000 0.000000
0.020000 0.750000 0.000000
0.290000 0.750000 0.000000
0.560000 0.750000 0.000000
0.830000 0.750000 0.000000
1.000000 0.750000 0.000000
0.020000 1.000000 0.000000
0.290000 1.000000 0.000000
0.560000 1.000000 0.000000
0.830000 1.000000 0.000000
1.000000 1.000000 0.000000
0.020000 0.000000 0.225000
0.290000 0.000000 0.225000
0.560000 0.000000 0.225000
0.830000 0.000000 0.225000
1.000000 0.000000 0.225000
0.020000 0.250000 0.225000
0.290000 0.250000 0.225000
0.560000 0.250000 0.225000
0.830000 0.250000 0.225000
1.000000 0.250000 0.225000
0.020000 0.500000 0.225000
0.290000 0.500000 0.225000
0.560000 0.500000 0.225000
0.830000 0.500000 0.225000
1.000000 0.500000 0.225000
0.020000 0.750000 0.225000
0.290000 0.750000 0.225000
0.560000 0.750000 0.225000
0.830000 0.750000 0.225000
1.000000 0.750000 0.225000
0.020000 1.000000 0.225000
0.290000 1.000000 0.225000
0.560000 1.000000 0.225000
0.830000 1.000000 0.225000
1.000000 1.000000 0.225000
0.020000 0.000000 0.450000
0.290000 0.000000 0.450000
0.560000 0.000000 0.450000
0.830000 0.000000 0.450000
1.000000 0.000000 0.450000
0.020000 0.250000 0.450000
0.290000 0.250000 0.450000
0.560000 0.250000 0.450000
0.830000 0.250000 0.450000
1.000000 0.250000 0.450000
0.020000 0.500000 0.450000
0.290000 0.500000 0.450000
0.560000 0.500000 0.450000
0.830000 0.500000 0.450000
1.000000 0.500000 0.450000
0.020000 0.750000 0.450000
0.290000 0.750000 0.450000
0.560000 0.750000 0.450000
0.830000 0.750000 0.450000
1.000000 0.750000 0.450000
0.020000 1.000000 0.450000
0.290000 1.000000 0.450000
0.560000 1.000000 0.450000
0.830000 1.000000 0.450000
1.000000 1.000000 0.450000
0.020000 0.000000 0.675000
0.290000 0.000000 0.675000
0.560000 0.000000 0.675000
0.830000 0.000000 0.675000
1.000000 0.000000 0.675000
0.020000 0.250000 0.675000
0.290000 0.250000 0.675000
0.560000 0.250000 0.675000
0.830000 0.250000 0.675000
1.000000 0.250000 0.675000
0.020000 0.500000 0.675000
0.290000 0.500000 0.675000
0.560000 0.500000 0.675000
0.830000 0.500000 0.675000
1.000000 0.500000 0.675000
0.020000 0.750000 0.675000
0.290000 0.750000 0.675000
0.560000 0.750000 0.675000
0.830000 0.750000 0.675000
1.000000 0.750000 0.675000
0.020000 1.000000 0.675000
0.290000 1.000000 0.675000
0.560000 1.000000 0.675000
0.830000 1.000000 0.675000
1.000000 1.000000 0.675000
0.020000 0.000000 0.900000
0.290000 0.000000 0.900000
0.560000 0.000000 0.900000
0.830000 0.000000 0.900000
1.000000 0.000000 0.900000
0.020000 0.250000 0.900000
0.290000 0.250000 0.900000
0.560000 0.250000 0.900000
0.830000 0.250000 0.900000
1.000000 0.250000 0.900000
0.020000 0.500000 0.900000
0.290000 0.500000 0.900000
0.560000 0.500000 0.900000
0.830000 0.500000 0.900000
1.000000 0.500000 0.900000
0.020000 0.750000 0.900000
0.290000 0.750000 0.900000
0.560000 0.750000 0.900000
0.830000 0.750000 0.900000
1.000000 0.750000 0.900000
0.020000 1.000000 0.900000
0.290000 1.000000 0.900000
0.560000 1.000000 0.900000
0.830000 1.000000 0.900000
1.000000 1.000000 0.900000
